X: 4
T: Oj, ty chato, ty pochyła
C: Bolesław Jan Ćwiklicz
%%abc-version 2.0
%%abcx-abcm2ps-target-version 5.9.1 (29 Sep 2008)
%%abc-creator hum2abc beta
%%abcx-conversion-date 2021/10/04 07:38:41
%%abc-edited-by Marcin Jachim
%%abc-edited-by Marta Chmielewska
%%abcx-initial-encoding-date 2021-08-11
%%humdrum-veritas 1813149052
%%humdrum-veritas-data 518954848
%%linebreak <none>
%%barnumbers 0
L: 1/8
M: 3/4
N: Derived from pl-kozmzk--mzk-m-137--002_cwiklicz-boleslaw-jan-oj-ty-chato-ty-pochyla.krn
%%staves {1 2}
V: 1 clef=treble
V: 2 clef=bass
K: C
[V:1] A>B {/d} cB cf & A^GA2A2 | 
[V:2] E,E, E,F, E,D, & C,B,, A,,D, C,B,, | 
[V:1] e>cA3c & AA2<A2A | 
[V:2] E,E, F,G, F,E, & C,A,, D,E, D,A,, | 
[V:1] B>^A Bf eB & EE E=A A^G | 
[V:2] E,E, E,D,E,2 & ^G,,^^F,, G,,B,, C,D, | 
[V:1] d>^c=c3z & A2>A2AA | 
[V:2] F,E, ^D,E, F,E, & A,,2>A,,2A,,A,, | 
[V:1] d>e fe fa & Bc ded2 | 
[V:2] A,A,A,2A,B, & F,E, D,C, D,F, | 
[V:1] a>^ge3=g & ee2<e2e | 
[V:2] B,B, A,^G,A,2 & E,D, C,B,, C,^C, | 
[V:1] g>^fd3=f & dd2<d2d | 
[V:2] A,A, G,^F,G,2 & D,C, _B,,A,, B,,=B,, | 
[V:1] f>ee3d & cc2<c2B | 
[V:2] G,G,2<^F,2=F, & C,B,, A,,^G,,A,,2 | 
[V:1] c>BA2a2- & A2A2c2 | 
[V:2] E,>D, C,E,F,2- & A,,2A,,G,,F,,2 | 
[V:1] a3/g//f//e3!fermata!z & d2B3z | 
[V:2] F,>A,^G,3z & B,,2[E,,3E,3]!fermata!z | 
[V:1] A>B {/d} cB cf & A^GA2A2 | 
[V:2] E,E, E,F, E,D, & C,B,, A,,D, C,B,, | 
[V:1] e>cA3c & AA2<A2A | 
[V:2] E,E, F,G, F,E, & C,A,, D,E, D,A,, | 
[V:1] B>^A Bf eB & EE E=A A^G | 
[V:2] E,E, E,D,E,2 & ^G,,^^F,, G,,B,, C,D, | 
[V:1] d>^c=c3z & A2>A2AA | 
[V:2] F,E, ^D,E, F,E, & A,,2>A,,2A,,A,, | 
[V:1] d>e fe f_a & _Bc dc df | 
[V:2] _B,B,B,2B,2 & F,G, F,G, F,D, | 
[V:1] _a>g_e3_g & _ee c_B =Ae | 
[V:2] C_B, _A,G, _G,=A, & _E,E,E,2C,2 | 
[V:1] _g>f_d3_f & _dd _B_A =Gd | 
[V:2] _B,_A, _G,F, _F,=G, & _D,D,D,2_B,,2 | 
[V:1] _f>_e e>=d d3/^c/ & _d_c c=B B^A | 
[V:2] _G,G, G,^F, F,F, & _C,C, C,=B,, ^C,C, | 
[V:1] ^c>=c c>B B3/c/ & ^A=A AA- AA- | 
[V:2] ^F,F, F,F,- F,F,- & ^D,D, D,D,- D,D,- | 
[V:1] c>BB4 & AA-A2^G G | 
[V:2] F,=F,- F,F,2E, & D,=D,- D,D,2D, | 
[V:1] A>B {/d} cB cf & A^GA2A2 | 
[V:2] E,E, E,F, E,D, & C,B,, A,,D, C,B,, | 
[V:1] e>cA3c & AA2<A2A | 
[V:2] E,E, F,G, F,E, & C,A,, D,E, D,A,, | 
[V:1] B>^A Bf eB & EE E=A A^G | 
[V:2] E,E, E,D,E,2 & ^G,,^^F,, G,,B,, C,D, | 
[V:1] d>^c=c3z & A2>A2AA | 
[V:2] F,E, ^D,E, F,E, & A,,2>A,,2A,,A,, | 
[V:1] d>e fe fa & Bc ded2 | 
[V:2] A,A,A,2A,B, & F,E, D,C, D,F, | 
[V:1] a>^ge3=g & ee2<e2e | 
[V:2] B,B, A,^G,A,2 & E,D, C,B,, C,^C, | 
[V:1] g>^fd3=f & dd2<d2d | 
[V:2] A,A, G,^F,G,2 & D,C, _B,,A,, B,,=B,, | 
[V:1] f>ee3d & cc2<c2B | 
[V:2] G,G,2<^F,2=F, & C,B,, A,,^G,,A,,2 | 
[V:1] c>BA2a2- & A2A2c2 | 
[V:2] E,>D, C,E,F,2- & A,,2A,,G,,F,,2 | 
[V:1] a3/g//f//e3z & d2B3z | 
[V:2] F,>A,^G,2x z & B,,2[E,,3E,3]z | 
[V:1] A>B cB cf & A^GA2A2 | 
[V:2] E,E, E,F, E,D, & C,B,, A,,D, C,B,, | 
[V:1] e>cA3c & AA2<A2A | 
[V:2] E,E, F,G, F,E, & C,A,, D,E, D,A,, | 
[V:1] B>^A Bf eB & EE E=A A^G | 
[V:2] E,E, E,D,E,2 & ^G,,^^F,, G,,B,, C,D, | 
[V:1] d>^c=c3z & A2>A2AA | 
[V:2] F,E, ^D,E, F,E, & A,,2>A,,2A,,A,, | 
[V:1] _B>c _dc d_f & _G_A BA Bd | 
[V:2] _G,G,G,2G,2 & _D,_E, D,E, D,_B,, | 
[V:1] =e>^d=B3=d & =BB ^GF =FB | 
[V:2] ^G,^F, E,^D, =D,=F, & =B,,B,,B,,2^G,,2 | 
[V:1] d>^cA3=c & AA =FE F^F | 
[V:2] =F,E, D,^C, D,^D, & A,,A,,2<A,,2A,, | 
[V:1] c>BB3c & =FF EF EA | 
[V:2] =D,D, E,D,E,2 & A,,A,, ^G,,A,, G,,A,, | 
[V:1] d>fe2B2 & A2A2A2 | 
[V:2] A,2A,2F,2 & [F,,F,]>D,C,2D,2 | 
[V:1] d3/c//B//A3z & ^G2E3z |]  
[V:2] E,>D,C,3z & E,E,,2<A,,2z |]  


